X: 3540
T: Big John McNeil
R: reel
M: 4/4
K: Amajor
|:A,2 CE FECE|AECE FECB,|A,2 CE FECE|AECA, B,DCB,|
A,2 CE FECE|AECE FECB,|D2 AD CEAE|1 B,A,B,C DEFE:|2 B,A,B,C DEFA||
|:eA~A2 eAfA|eA~A2 efga|eA~A2 agfe|=gdBd =GdBd|
eA~A2 eafa|eA~A2 efge|agfe fedc|1 BAGA Bcdf:|2 BAGF EDCB,||

